src/img/projects/searchstone.svg

<?xml version="1.0" encoding="UTF-8"?>
<svg width="90px" height="90px" viewBox="0 0 90 90" version="1.1" xmlns="http://www.w3.org/2000/svg" xmlns:xlink="http://www.w3.org/1999/xlink">
    <!-- Generator: Sketch 41.2 (35397) - http://www.bohemiancoding.com/sketch -->
    <title>community/card/logo/searchstone</title>
    <desc>Created with Sketch.</desc>
    <defs></defs>
    <g id="Symbols" stroke="none" stroke-width="1" fill="none" fill-rule="evenodd">
        <g id="community/card/logo/searchstone" fill="#FFFFFF">
            <path d="M27.6337083,59.5164446 C29.070038,59.9079063 30.6053246,60.0919952 31.9252345,60.725028 C39.0566769,64.1455883 53.085267,58.7633538 55.418757,49.8412288 C57.8453829,40.5632956 52.2215773,30.9455621 43.3401992,31.3312028 C40.1524786,31.4694513 36.6606112,32.8955943 34.0076943,34.7408487 C31.3933414,36.5584533 32.1675333,40.1296318 33.6577071,42.3809003 C34.710579,43.9707587 37.2827297,44.6117954 39.2735089,45.4441972 C39.5027104,45.5395159 40.6501734,44.2116022 40.8539081,43.4126711 C41.1733351,42.1560645 41.0510942,40.7874038 41.1369539,39.0585693 C44.3435927,38.3178481 46.5730325,39.6413961 48.1337859,42.4485693 C49.8589823,45.5518855 49.1895683,49.064854 46.2790724,51.1851503 C38.1616995,57.0978226 28.2543716,52.9088914 25.1670631,44.5812352 C21.6824719,35.1810612 23.4891622,31.8499987 32.2126459,24.8102368 C40.1713969,18.3867725 53.6528137,21.4042291 59.7764969,28.0794513 C67.3008563,36.2812286 68.572743,46.5065282 63.2741853,56.4800698 C57.3091241,67.7080352 40.213599,72.067958 29.6237599,64.9081382 C28.3256787,64.0306237 27.707926,62.1460776 26.7751121,60.7279385 C27.0617959,60.3241072 27.3477521,59.9202759 27.6337083,59.5164446" id="icon"></path>
        </g>
    </g>
</svg>

<svg width="90" height="90" viewBox="0 0 90 90" xmlns="http://www.w3.org/2000/svg"><title>community/card/logo/searchstone</title><path d="M27.634 59.516c1.436.392 2.971.576 4.291 1.209 7.132 3.42 21.16-1.962 23.494-10.884 2.426-9.278-3.197-18.895-12.079-18.51-3.188.138-6.68 1.565-9.332 3.41-2.615 1.817-1.84 5.389-.35 7.64 1.053 1.59 3.625 2.23 5.616 3.063.229.096 1.376-1.232 1.58-2.031.32-1.257.197-2.626.283-4.354 3.207-.741 5.436.582 6.997 3.39 1.725 3.103 1.056 6.616-1.855 8.736-8.117 5.913-18.025 1.724-21.112-6.604-3.485-9.4-1.678-12.731 7.046-19.77 7.958-6.424 21.44-3.407 27.563 3.268 7.525 8.202 8.797 18.428 3.498 28.401-5.965 11.228-23.06 15.588-33.65 8.428-1.298-.877-1.916-2.762-2.849-4.18l.859-1.212" fill="#FFF" fill-rule="evenodd"/></svg>
